/* XPM */
static char *_d740ffc32584637a7f093d743fe30b2X2bWqNtu7tQ4nzVt[] = {
/* columns rows colors chars-per-pixel */
"64 64 254 2 ",
"   c #010001",
".  c #0B0202",
"X  c #06040B",
"o  c #0B050B",
"O  c #0C0A0D",
"+  c #0D0A05",
"@  c #110201",
"#  c #140903",
"$  c #1A0B05",
"%  c #12060B",
"&  c #130B0C",
"*  c #1B0C0B",
"=  c #190506",
"-  c #16110E",
";  c #1B130D",
":  c #1A1006",
">  c #050415",
",  c #0B0414",
"<  c #0D0B12",
"1  c #050419",
"2  c #0B051A",
"3  c #0C091B",
"4  c #07091A",
"5  c #120D13",
"6  c #11061B",
"7  c #130A1D",
"8  c #180A17",
"9  c #141214",
"0  c #1A1513",
"q  c #1E1A15",
"w  c #171419",
"e  c #1B151A",
"r  c #1D191B",
"t  c #260D08",
"y  c #23130D",
"u  c #2B170A",
"i  c #32180D",
"p  c #231B14",
"a  c #22131B",
"s  c #241C1C",
"d  c #2A1C1B",
"f  c #281714",
"g  c #331B1C",
"h  c #371D14",
"j  c #240F16",
"k  c #28211C",
"l  c #372418",
"z  c #3F2109",
"x  c #0E0821",
"c  c #120921",
"v  c #1C1521",
"b  c #241B24",
"n  c #291D24",
"m  c #251C2A",
"M  c #271724",
"N  c #331B28",
"B  c #2A1F30",
"V  c #2A2422",
"C  c #2A2427",
"Z  c #342324",
"A  c #332C2B",
"S  c #382829",
"D  c #36322B",
"F  c #2E2233",
"G  c #392A34",
"H  c #3C3535",
"J  c #462A1A",
"K  c #4B2719",
"L  c #432D2C",
"P  c #492C2C",
"I  c #442923",
"U  c #502E22",
"Y  c #4A342B",
"T  c #54342A",
"R  c #5C342C",
"E  c #563627",
"W  c #4A2F34",
"Q  c #452B35",
"!  c #493738",
"~  c #543532",
"^  c #5B3533",
"/  c #543A34",
"(  c #5D3C35",
")  c #5B3C3A",
"_  c #553C39",
"`  c #62372C",
"'  c #633C34",
"]  c #633D3B",
"[  c #693A37",
"{  c #763B38",
"}  c #6B2B30",
"|  c #622715",
" . c #5D413A",
".. c #584337",
"X. c #4F423C",
"o. c #67452E",
"O. c #634234",
"+. c #6C4133",
"@. c #64433C",
"#. c #6B443C",
"$. c #6C4B3D",
"%. c #694A3A",
"&. c #724A3D",
"*. c #7C4D3E",
"=. c #734538",
"-. c #73513C",
";. c #7A533C",
":. c #6F503E",
">. c #3A3442",
",. c #483D47",
"<. c #503F45",
"1. c #7A3C42",
"2. c #603D41",
"3. c #4B4344",
"4. c #564A4A",
"5. c #4B4454",
"6. c #584B55",
"7. c #5C5152",
"8. c #5E544A",
"9. c #6B4443",
"0. c #654B40",
"q. c #6C4B43",
"w. c #654544",
"e. c #734C43",
"r. c #7B4C44",
"t. c #7C4D4A",
"y. c #774546",
"u. c #6B5246",
"i. c #745445",
"p. c #7D5244",
"a. c #7D544A",
"s. c #7E5A4B",
"d. c #775746",
"f. c #6C5B5C",
"g. c #655253",
"h. c #795855",
"j. c #614E52",
"k. c #7D624E",
"l. c #6E645B",
"z. c #7E6653",
"x. c #705D61",
"c. c #786766",
"v. c #6F6862",
"b. c #804839",
"n. c #853C43",
"m. c #864948",
"M. c #914C4D",
"N. c #825344",
"B. c #835B45",
"V. c #83554A",
"C. c #855B4C",
"Z. c #8B5B4C",
"A. c #895648",
"S. c #915C4D",
"D. c #8D5C52",
"F. c #855A52",
"G. c #925D52",
"H. c #985F54",
"J. c #914A50",
"K. c #8C634C",
"L. c #8A634A",
"P. c #91644E",
"I. c #98684E",
"U. c #846353",
"Y. c #8C6453",
"T. c #8B6B58",
"R. c #946553",
"E. c #946B54",
"W. c #9B6C55",
"Q. c #9D6D5A",
"!. c #976858",
"~. c #8E725E",
"^. c #92725C",
"/. c #9D725B",
"(. c #99745A",
"). c #A26C5B",
"_. c #AA6B59",
"`. c #A57356",
"'. c #A3745C",
"]. c #AA765C",
"[. c #AC7B5E",
"{. c #A6785B",
"}. c #B1785B",
"|. c #A6664D",
" X c #88726A",
".X c #9A7966",
"XX c #897974",
"oX c #957F73",
"OX c #8F6D62",
"+X c #A57662",
"@X c #A37C63",
"#X c #AC7C63",
"$X c #AA7566",
"%X c #B47C63",
"&X c #BA7D64",
"*X c #B67C68",
"=X c #A5776B",
"-X c #AE805F",
";X c #998577",
":X c #A98368",
">X c #B38364",
",X c #BB8365",
"<X c #B5836B",
"1X c #BB846B",
"2X c #B6896C",
"3X c #A68979",
"4X c #BA8673",
"5X c #AD967B",
"6X c #C3866A",
"7X c #C48A6C",
"8X c #C98C6D",
"9X c #C58A71",
"0X c #A08F86",
"qX c #AB9584",
"wX c #AC9A84",
"eX c #A79789",
"rX c #B39D86",
"tX c #B49C86",
"yX c #AF9C92",
"uX c #B5A28C",
"iX c #BBA58C",
"pX c #B8A285",
"aX c #B4A493",
"sX c #B9A594",
"dX c #BDAB94",
"fX c #BBA99A",
"gX c #B8A499",
"hX c #B4A797",
"jX c #BEADA3",
"kX c #C1A98C",
"lX c #C2AD94",
"zX c #C2AD99",
"xX c #C5B39B",
"cX c #CAB49C",
"vX c #CCB99C",
"bX c #C6B598",
"nX c #D1BB9E",
"mX c #C8B08C",
"MX c #CBB6A2",
"NX c #CEBAA3",
"BX c #C6B7A6",
"VX c #D4BDA4",
"CX c #D4BDAB",
"ZX c #D5BBA6",
"AX c #D4C2A4",
"SX c #DAC4A6",
"DX c #D5C2AB",
"FX c #DBC4AB",
"GX c #DECAAB",
"HX c #DCC8A7",
"JX c #DAC9B4",
"KX c #D7CBBA",
"LX c #E2D1B9",
"PX c #E1CBAD",
/* pixels */
"                                                                            q V A           .                                   ",
"                                                                          s . . ! k & . H A C .                                 ",
"                                                                - D V A 3.k . X.S Z D s V s a A &                               ",
"                                                              + A A V q q p p d d V n V e r a 0 0 O   X                         ",
"                                                          A D k 0 0 r r w 0 9 9 s b b b r w 0 & 0 w 0                           ",
"                                                        V s ; p 0 9 0 w w O < O O 5 w 9 w 9 0 5 e e r r V O                     ",
"                                                      H p 3.d q - 9 0 0 9 9 O O O O 5 9 5 9 5 9 9 w 9 r r s                     ",
"                                                    H D 8.k p q 0 - 9 0 9 O O O O O 5 9 9 5 5 5 9 w e r r 0                     ",
"                                                    H D k k 0 0 0 0 9 5 O O < < < < 5 5 5 8 5 9 5 w w w w w                     ",
"                                                      D p 0 - 9 9 - & & o O X < < < < 5 5 8 5 5 5 5 5 5 5 9                     ",
"                                                    V k q 0 9 < 9 O o o & o o X X < 5 5 5 < O < o o < 5 < <                     ",
"                                                  3.A q q - O < O % + $ $ y f y * $ $ # + O O X o o < 5 < <                     ",
"                                                  V 0 q - 0 - & @ f ..0.$.:.i.d.u.u.Y f $ + X X X o o 5 9 9                     ",
"                                                H 9 0 & * # # y u.U.Y.^.P.P.E.K.K.Y.s.0.~ f . o o X o < 5 9                     ",
"                                              . D q 0 - $ $ I U.(.{.>X].`.`.W.W.W.E.E.Y.d.%.Y ; . o < 9 5 5                     ",
"                                              - H k 0 $ $ u.^./.>X1X1X,X%X}.[.`./.'./.W.Y.U.i.~ = 5 5 5 < 5                     ",
"                                              v.  q 0 $ i.(.{.[.,X,X1X,X,X>X[.{.`.`.`.W.W.R.C.$.~ = - 5 < 5                     ",
"                                                  ; k ..E.:X>X,X,X,X,X,X,X>X%X[.].`.`.W.W.E.K.p.@.I * & 9 5                     ",
"                                                k p l k.{.>X,X,X1X1X,X1X,X,X%X%X[.{.`.'.W.I.K.Z.&.( * % & 5                     ",
"                                                A k E ^.:X>X>X2X2X2X<X1X>X%X}.[.#X{.'.Q.E.E.S.A.*.$.~ $ o o                     ",
"                                            X   s f U..X:X(.~.~.:X:X2X>X>X#X#X#X#X'.'./.E.R.P.Z.N.&.0.f % 5                     ",
"                                                s l ~..XE E J J J z o.E.E.{.#X#X#X@X+X/.Q.R.Z.C.A.s.0.! @ %                     ",
"                                                s h ~.` %.d.d.d.-.o.$.(.K.'.#X#X#X'.W.C.Y.Y.U.C.B.d.0._ = % X                   ",
"                                                p ..^.Y.:X:X(.(.^.^.^.^.'.#X:X#X+XR.V.+.#.T T 0.d.q.0._ j %   X                 ",
"                                                u ~./.#X{./.'./.E.E.W.W.#X<X<X#XQ.Y.&.e.Y h u i J T 0._ * &                     ",
"                                              . l .X@X{./.E.W.E.L.-.Z.I.'.1X<X#XR.p.&.q.0.0...Y h i I / y A                     ",
"                                                l .X#X@XK.o.J h u J O.B.E.<X2X'.Z.+.' O.e.d.d.s.q._ I ..$ 4.                    ",
"                                  X           . J :X@X/.K.-.%.J i T E B.W.<X>X/.p.R R i.U.U.s.d.h.u._ / $ 4.                    ",
"                                              . k.@X#X#XW.E.T.k.d.-.;.L.[.-X#X'.C.R E @.q.i.d.i.w.u.q./ t f..                   ",
"                                            . ...X<X<X%X`.P.K.L.B.L.E.`.[.>X[.'.C.' h  .t i t ( ) q.#.( g g.                    ",
"                                          . u.@X`.1X7X&X%X].I.`.`.].].%X,X%X#XW.C.#.T ^ / h h h I @.#.( L !                     ",
"                                          . -.>X].7X7X6X6X&X,X}.%X%X&X&X&X&X*XW.*.+.#.^ ( @.%.@.T R $.( L H                     ",
"                                          . Y.[.}.7X7X}.6X7X7X6X&X,X,X&X}.&X*X'.*.+.&.e.&.#.e.#.&.&.$. .g 7.                    ",
"                                          @ <X%X[.7X9X7X8X8X8X7X6X,X&X].,X1X*X$XG.=.=.p.p.p.V.N.p.a.#. .d G                     ",
"                                          I +X1X`.<X7X8X6X6X7X6X&X}.}.&X6X9X1X$XR.p.=.r.Z.Z.Z.Z.C.a.#.@.g ! .                   ",
"                                          ..Z.I.).%X7X7X6X8X8X7X&X|.&X6X9X9X4X$XR.N.=.*.Z.Z.Z.Z.D.V.e.) f 4.                    ",
"                                          d =XZ.R.`.,X,X6X6X6X6X&X_.%X| $X4X4X$XZ.=.+.N.Z.S.Z.Z.D.F.q.~ Z 4.                    ",
"                                          @ .XZ.!.W.[.&X,X6X6X9X*X$Xb.N.*.$X).D.` +.*.G.G.S.Z.Z.F.F.q.h L !                     ",
"                                          . .XY.!.E.).%X%X1X7X<X#X$XR.[ &.V.r.K K #.V.R.G.G.Z.D.F.a.q.t L 4.                    ",
"                                    .   f u.T.Y.Y.R.E.'.<X%X1XW.Q./.Y.a.i.a.R U R &.V.D.G.G.D.Z.t.9.) y S 7.                    ",
"                          l.: . # ;XBXxXdXdX.Xp.B.L.P./.#X$XP.Z.;.;.B.Y.a.C.s.' E e.a.Z.D.Z.C.a.t.] _ f ! 7.                    ",
"                    p l.eXfXgXBXBXMXvXvXvXlXkXpX-.p.B.E.'.W.A.Z.K.!.Z.=X.XF.F.q.U $.i.C.C.V.a.e.] ^ L f 3.7.                    ",
"                  . DXCXvXxXlXiXiXpXmXbXbXlXbXiX5Xo.;.W.+X!.Z.P.R.$X$XQ.!.R.F.a.U ' #.&.a.a.e.O.) ~ g Z 7.c.                    ",
"                    BXKXFXDXDXbXkXpX5XpXuXaXuXuXiX3X=.P.'.W.).Q.).R.A.m.m.m.[ a.q.' R ' e.9.( ( ) _ f ! f.XX                    ",
"                    0 ; ; eXDXxXvXiX5Xz.d * XX;XyXtX.XZ.Q.+X).).S.{ { } m.m.[ y.a.] ^ ' #.' ^ ) ) P d 7.c.XX                    ",
"                    3.q ; y u NXAXVXpX;X$ & & 0  X3X3X=.Z.).!.Q.H.m.M.n.} } } ^ ' ] ( ' ] ' ) / W Z S j.f.v.                    ",
"                    KXDXdXlXvXbXDXxXrX;X# X X < & c.3X^.*.S.!.R.H.m.M.M.n.n.1.[ ^ @.@.#.] ^ ^ ~ W f A <.g.f.                    ",
"                  . LXJXGXPXSXVXlXdXwX0Xk < 4 3 w n oX;X' =.N.Z.A.A.m.M.J.m.{ ` ^ #.9.9.' ^ T ~ L d Q ! g.!                     ",
"                  . LXLXHXHXxXxXiXiXuX;X- v 3 x c 5 d  XO.E &.r.V.t.m.y.1.1.` R ' #.9.2.^ ^ P P S S ! 3.j.4.                    ",
"                    LXHXGXnXlXiXkXlXxXaXv.5 3 3 > < l ;Xz.U ' #.[ &.[ y.{ [ R ' #.#.9.' ^ P P L a G ! f.<.6.                    ",
"                  . LXbXAXAXVXtXiXFXxXaXc.5 , < 5 & c.qXoXU R ' [ [ r.m.m.r.e.e.#.#.9.^ P P S Z G H ,.4.6.7.                    ",
"                    DXvXdXbXxXqXbXvXBXjXc.& 5 & 0 l.aXrXqXU.R ` [ &.r.V.V.y.e.$.' @.@.P I L S s M ,.F ,.<.G                     ",
"                    DXvXbXVXlXiXxXFXDX0X8.$ Y c.0XaXdXrXqX3XE ' #.y.r.p.r.r.e.#.^ @.^ I I S Z n F b F n 6.5.                    ",
"                    BXNXxXvXcXrXlXVXzXuX;XaXdXxXxXbXiXuX3XoXO.O.#.y.r.r.r.r.a.^ ) _ I g S g G M ,.,.F G ,.6.                    ",
"                    fXxXdXxXqXdXxXvXxXwXNXAXAXAXvXvXxXiX3X;XOXE @.q.t.r.r.t.9.w._ P g g g Q e m 5.5.6.G B 5.                    ",
"                  . fXdXuXuXzXxXvXlXDXDXDXSXHXGXnXvXiXtX3XoX XT ] w.e.y.t.9.w.W L d j g W G , , m G >.F F m                     ",
"                    aXwX5XdXMXMXdXcXDXJXFXSXPXGXSXlXnXrXqX;X X~ W ) 2.w.w.w.W Z d a S Q G 8 6 > > > > > 7 G                     ",
"                    eX;XdXxXzXsXzXVXSXAXSXFXHXVXnXxXnXiXqXoX Xf.N Q W W W Q S j n G G N N 8 , 3 > > , > 6 c                     ",
"                    0XwXuXaXuXzXvXVXVXVXSXVXZXZXZXcXcXdXqX;X Xx.a M a j a e M M m m B M 7 , 2 2 , , , , 6 ,                     ",
"                    yXfXgXsXzXMXVXJXGXHXHXVXVXZXZXZXMXuXqXoX Xc.a e v 8 7 6 , 6 , , , 3 > , 2 2 , , , 2 x 2                     ",
"                    gXfXBXxXMXMXFXJXGXHXHXVXVXFXZXMXxXuXqXoX Xv.% , , , , 2 , , , 3 1 1 > 1 , 6 6 6 7 6 2 2                     ",
"                  . yXfXBXMXMXZXNXDXHXSXSXFXSXVXFXDXxXrXqXoXc.c.o 2 , , 2 2 3 2 2 2 1 1 > 1 2 6 6 6 7 c 3 2                     ",
"                  . eXsXfXMXNXxXCXVXDXSXDXDXDXFXDXVXbXpX;XXXc.f.e , , 1 2 2 2 1 , , 1 1 2 > , 2 6 7 3 c x 2                     ",
"                    0XaXgXdXNXMXNXMXcXMXCXCXCXCXDXNXbXwX;X Xc.x.6., , , 2 4 x 2 2 2 2 2 1 > 3 6 7 7 c 3 x 3                     "
};
